X:1
T:Or n'ai-je plus
T:François Bourguignon
T:Source :  R.Eitner---60 Chansons zu 4 Stimmen---Leipzig---Breitkopf & Härtel---1899. Editor : André Vierendeels (01/12/17). Notes : Original clefs : C1, C3, C3, F3 Editorial accidentals above the staff
T:Or n'ay-ie plus
T:©
T:©
C:François Bourguignon
Z:©
%%score [ 1 2 3 4 ]
L:1/8
Q:1/4=120
M:2/2
K:F
V:1 treble nm="Soprano" snm="S"
V:2 treble nm="Alto" snm="A"
V:3 treble-8 nm="Tenor" snm="T"
V:4 bass nm="Bass" snm="B"
V:1
 z8 | G4 B2 A2 | B3 c d4 | z4 z2 d2 | B2 c2 d2 B2- | B2 A2 B4 | z2 B2 c4 | d4 G2 c2 | B2 A4 G2- | %9
w: |Or n'ai je|plus _ _|crain-|te d'ê- tre sur-|* * pris,|car à|mon gré fort|bien je l'ai|
 G2 ^F2 G4 | z2 G2 B2 B2 | A4 F2 G2- | GFFE/D/ E4 | z2 D3 EFG | AB c2 A2 B2- | BA F2 G4 | %16
w: _ choi si,|ain- si pour-|sui- * *|* * * * * vrai|ce _ _ _|_ _ _ que j'ai|_ _ en- tre-|
[M:2/4] F4 |: z2 B2 |[M:2/2] B2 G2 A4 | z2 d4 c2 | A2 B4 A2 | F2 G4 F2 | G8 :| %23
w: pris,|ser-|vant cel- le|que _|mon cueur _|a sai- *|si.|
V:2
 z8 | G6 F2 |"^b" E4 D2 F2 | G2 A2 F4 | G2 A2 D3 E | F4 z2 F2 | G4 A4 | D2 F2 E2 G2 | F6 E2 | %9
w: |Or n'ai|je plus crain-|te d'ê- tre,|d'ê- tre- sur _|pris car|à mon|gré fort bien je|l'ai _|
 D4 B,4 | z2 B,3 CDE | F4 D2 E2- | ED D4 C2 | D4 z2 D2- | D2 C2 D2 B,2- | B,2 A,4 G,2 | %16
w: choi- si,|ain- si _ _|_ pour sui-||vrai ce|_ que j'ai en-|* * tre-|
[M:2/4] A,4 |: z2 B,2 |[M:2/2] D2 E2 F4 | z2 F4 E2 | F2 G4 C2 | D2 C2 D4 | B,8 :| %23
w: pris,|ser-|vant cel- le|que _|mon cueur _|a _ sai-|si.|
V:3
 G4 B2 A2 | B3 c d4 | z4 z2 d2 | B2 c2 d2 B2- | B2 A2 B2 B2 |"^b" c4 d4 | G2 B2 A2 f2- | fe d4 c2 | %8
w: Or n'ai je|plus, _ _|crain-|te d'ê- tre sur-|* * pris, car|à mon|gré fort bien je|_ _ _ l'ai|
 d4 c2 B2 | A4 z2 G2 | B3 A G4 | F4 z4 | z2 G2 c2 c2 | GABc dcde | f2 e2 f2 e2- | e2 d4 c2 | %16
w: choi- * *|si, je|pour- * sui-|vrai|ce que j'ai|en- * * * * * * *||* * tre-|
[M:2/4] d4 |: z4 |[M:2/2] z2 B2 c4 | d4 B2 c2- | c2 B2 G2 A2 | B2 AG A4 | G8 :| %23
w: pris,||ser- vant|cel- le que|_ mon cueur a|sai- * * *|si.|
V:4
 G,6 F,2 |"^b" E,4 D,4 | z2 G,2 G,2 D,2 | G,2 F,2 B,,4 | z2 F,2 D,2 G,2 | F,2 F,2 B,,2 B,2 | %6
w: Or n'ai|je plus,|crain- te d'ê-|tre sur- pris,|car à mon|gré fort bien, car|
 B,2 G,2 F,4 | z2 D,2 E,2 E,2 | D,3 E, F,2 G,2 | D,4 G,4- | G,4 z4 | z4 z2 G,2 | B,2 B,2 A,4 | %13
w: à mon gré,|fort bien je|l'ai _ _ _|choi- si,|_|je|pour- sui- vrai|
 z2 G,2 B,4 | A,4 F,2 G,2- |"^b" G,F, D,2 E,4 |[M:2/4] D,4 |: z2 G,2- |[M:2/2]"^#" G,2 G,2 F,3 E, | %19
w: ce que|j'ai en- *|* * * tre-|pris,|ser-|* vant cel- *|
 D,4 z2 A,2- | A,2 G,2 E,2 F,2 | D,2 E,2 D,4 | G,8 :| %23
w: le, que|_ mon cueur a|sai- * *|si.|

